SVG_Azure_Grouped/Office365/O365 - Stream.svg

<?xml version="1.0" encoding="UTF-8" standalone="no"?>
<!-- Generated by Microsoft Visio, SVG Export O365 - Stream.svg Page-1 -->

<svg
   xmlns:dc="http://purl.org/dc/elements/1.1/"
   xmlns:cc="http://creativecommons.org/ns#"
   xmlns:rdf="http://www.w3.org/1999/02/22-rdf-syntax-ns#"
   xmlns:svg="http://www.w3.org/2000/svg"
   xmlns="http://www.w3.org/2000/svg"
   xmlns:sodipodi="http://sodipodi.sourceforge.net/DTD/sodipodi-0.dtd"
   xmlns:inkscape="http://www.inkscape.org/namespaces/inkscape"
   width="0.78740251in"
   height="0.78740251in"
   viewBox="0 0 56.692899 56.692697"
   xml:space="preserve"
   class="st5"
   version="1.1"
   id="svg34"
   sodipodi:docname="O365 - Stream.svg"
   style="font-size:12px;overflow:visible;color-interpolation-filters:sRGB;fill:none;fill-rule:evenodd;stroke-linecap:square;stroke-miterlimit:3"
   inkscape:version="0.92.5 (2060ec1f9f, 2020-04-08)"><metadata
   id="metadata40"><rdf:RDF><cc:Work
       rdf:about=""><dc:format>image/svg+xml</dc:format><dc:type
         rdf:resource="http://purl.org/dc/dcmitype/StillImage" /></cc:Work></rdf:RDF></metadata><defs
   id="defs38" /><sodipodi:namedview
   pagecolor="#ffffff"
   bordercolor="#666666"
   borderopacity="1"
   objecttolerance="10"
   gridtolerance="10"
   guidetolerance="10"
   inkscape:pageopacity="0"
   inkscape:pageshadow="2"
   inkscape:window-width="640"
   inkscape:window-height="480"
   id="namedview36"
   showgrid="false"
   inkscape:zoom="1.5932374"
   inkscape:cx="37.795322"
   inkscape:cy="28.708703"
   inkscape:window-x="0"
   inkscape:window-y="0"
   inkscape:window-maximized="0"
   inkscape:current-layer="svg34" />
	<style
   type="text/css"
   id="style2">
	<![CDATA[
		.st1 {fill:#e8467c;stroke:none;stroke-linecap:butt;stroke-width:20.3856}
		.st2 {fill:#bc1948;stroke:none;stroke-linecap:butt;stroke-width:20.3856}
		.st3 {fill:#8c193f;stroke:none;stroke-linecap:butt;stroke-width:20.3856}
		.st4 {fill:none;stroke:none;stroke-linecap:butt;stroke-width:20.3856}
		.st5 {fill:none;fill-rule:evenodd;font-size:12px;overflow:visible;stroke-linecap:square;stroke-miterlimit:3}
	]]>
	</style>

	<g
   id="g32"
   transform="translate(-20.3856,-20.385796)">
		<title
   id="title4">Page-1</title>
		<g
   id="group20763-1"
   transform="translate(20.3856,-34.0157)">
			<title
   id="title6">O365 - Stream.20763</title>
			<g
   id="group20764-2">
				<title
   id="title8">_32</title>
				<g
   id="shape20765-3"
   transform="translate(12.4016,-23.563)">
					<title
   id="title10">path2</title>
					<path
   d="m 40.38,107.69 a 2.28543,2.28543 0 0 0 -0.71,-3.17 L 4.52,82.16 A 2.8878,2.8878 0 0 0 0,84.52 v 23.03 l 19.49,3.54 z"
   class="st1"
   id="path12"
   inkscape:connector-curvature="0"
   style="fill:#e8467c;stroke:none;stroke-width:20.38559914;stroke-linecap:butt" />
				</g>
				<g
   id="shape20766-5"
   transform="translate(12.4016,-4.23425)">
					<title
   id="title15">path4</title>
					<path
   d="m 0,86.98 v 21.26 a 3.06496,3.06496 0 0 0 4.39,2.85 L 39.65,88.91 a 2.32087,2.32087 0 0 0 1.1,-1.93 z"
   class="st2"
   id="path17"
   inkscape:connector-curvature="0"
   style="fill:#bc1948;stroke:none;stroke-width:20.38559914;stroke-linecap:butt" />
				</g>
				<g
   id="shape20767-7"
   transform="translate(3.54331,-14.7099)">
					<title
   id="title20">path6</title>
					<path
   d="m 2.36,83.55 18.21,12.4 a 1.66535,1.66535 -180 0 1 0,2.69 L 2.36,111.05 A 1.52362,1.52362 -180 0 1 0,109.7 V 84.9 a 1.52362,1.52362 -180 0 1 2.36,-1.35 z"
   class="st3"
   id="path22"
   inkscape:connector-curvature="0"
   style="fill:#8c193f;stroke:none;stroke-width:20.38559914;stroke-linecap:butt" />
				</g>
				<g
   id="shape20768-9">
					<title
   id="title25">path8</title>
					<rect
   x="0"
   y="54.401299"
   width="56.692902"
   height="56.692902"
   class="st4"
   id="rect27"
   style="fill:none;stroke:none;stroke-width:20.38559914;stroke-linecap:butt" />
				</g>
			</g>
		</g>
	</g>
</svg>

<?xml version="1.0" encoding="UTF-8" standalone="no"?>
<!DOCTYPE svg PUBLIC "-//W3C//DTD SVG 1.1//EN" "http://www.w3.org/Graphics/SVG/1.1/DTD/svg11.dtd">
<!-- Generated by Microsoft Visio, SVG Export O365 - Stream.svg Page-1 -->
<svg xmlns="http://www.w3.org/2000/svg" xmlns:xlink="http://www.w3.org/1999/xlink" xmlns:ev="http://www.w3.org/2001/xml-events"
		width="1.35367in" height="1.54298in" viewBox="0 0 97.4641 111.094" xml:space="preserve" color-interpolation-filters="sRGB"
		class="st5">
	<style type="text/css">
	<![CDATA[
		.st1 {fill:#e8467c;stroke:none;stroke-linecap:butt;stroke-width:20.3856}
		.st2 {fill:#bc1948;stroke:none;stroke-linecap:butt;stroke-width:20.3856}
		.st3 {fill:#8c193f;stroke:none;stroke-linecap:butt;stroke-width:20.3856}
		.st4 {fill:none;stroke:none;stroke-linecap:butt;stroke-width:20.3856}
		.st5 {fill:none;fill-rule:evenodd;font-size:12px;overflow:visible;stroke-linecap:square;stroke-miterlimit:3}
	]]>
	</style>

	<g>
		<title>Page-1</title>
		<g id="group20297-1" transform="translate(20.3856,-34.0157)">
			<title>O365 - Stream.20297</title>
			<g id="group20298-2">
				<title>_32</title>
				<g id="shape20299-3" transform="translate(12.4016,-23.563)">
					<title>path2</title>
					<path d="M40.38 107.69 A2.28543 2.28543 -0 0 0 39.67 104.52 L4.52 82.16 A2.8878 2.8878 -0 0 0 -0 84.52 L0 107.55
								 L19.49 111.09 L40.38 107.69 Z" class="st1"/>
				</g>
				<g id="shape20300-5" transform="translate(12.4016,-4.23425)">
					<title>path4</title>
					<path d="M0 86.98 L0 108.24 A3.06496 3.06496 -0 0 0 4.39 111.09 L39.65 88.91 A2.32087 2.32087 -0 0 0 40.75 86.98
								 L0 86.98 Z" class="st2"/>
				</g>
				<g id="shape20301-7" transform="translate(3.54331,-14.7099)">
					<title>path6</title>
					<path d="M2.36 83.55 L20.57 95.95 A1.66535 1.66535 180 0 1 20.57 98.64 L2.36 111.05 A1.52362 1.52362 180 0 1
								 -0 109.7 L0 84.9 A1.52362 1.52362 180 0 1 2.36 83.55 Z" class="st3"/>
				</g>
				<g id="shape20302-9">
					<title>path8</title>
					<rect x="0" y="54.4013" width="56.6929" height="56.6929" class="st4"/>
				</g>
			</g>
		</g>
	</g>
</svg>
